X:805
T:Waltz
A:Wyresdale, Lancashire
B:E and J Winder, 1835-41
L:1/16
M:3/8
O:England
Z:Richard Robinson 
%%RRN:"A good tune"
%%TUNEURL: http://www.leeds.ac.uk/music/Info/RRTuneBk/gettune/00001079.html
%%ID:00001079
K:Bb
FE |  \
(DF)BFdB | fdbfdf | fedcBA | cBdBFE | \
(DF)BFdB | fdbfdf | fedcBA | B4 ::
AB | \
cAFAcf | cAFAcf | =efgabg | fafd AB | \
cAFAcf | cAFAcf | =efgabg | f4 ::
de | \
g4 fd | ABc de=e | fgfede | fdBdgb | {^f}g4 ec | ABcdeA | B4 ::
